X: 505
T:Drunken Sailor, The
M:4/4
L:1/8
N:Posted to the woodenflute mailing list April 2002
Z:James T. Peeples
K:ADor
|:AG|A2 AG ABcd|edcB AGEF|G2 GF GABc|dBGB edcB|
A2 AG ABcd|edcB AGEF|G2 gf edcB|cAAG A2:|
|:AB|c2 cB cdef|gdBc dBGA|(3BAG dG eGdG|(3BAG dG edcB|c2 cB cdef|
gdBc dB GB|A2 ag edcB|cAAG A2:|
|:cd|e2 ag a2 ga|bagf e3 g|(3fed ad bdad|(3fed ad bagf|e2 ag a2
ga|bagf e3 d|(3efg (3fga gedB|cAAG A2:|
|: A2|EAce EAce|DGBd DGBd|EAce EAce|e=fed c2 B2|
EAceEAce|d2 BG DGBd|(3e fg (3fga gedB|cAAG A2:|
|: A2|ae (3abc' ae (3abc'|gd (3gab gd (3gab|ae (3abc' ae (3abc'|gedB
ecd B|cdcA B3 B| cdcA d3 d|(3efg (3fga gedB|cAAG A2:|

